X:1
T:6 Lieder, Op.10
T:Gedenkst du mein?
T:1. Gedenkst du mein?
T:Josephine Lang
T:Christian Reinhold [Köstlin]
T:6 Lieder, Op.10
T:Creative Commons copyright waiver (CC0 1.0 Universal)
T:Creative Commons copyright waiver (CC0 1.0 Universal)
T:Creative Commons copyright waiver (CC0 1.0 Universal)
C:Josephine Lang
Z:Christian Reinhold [Köstlin]
Z:Creative Commons copyright waiver (CC0 1.0 Universal)
%%score ( 1 2 )
L:1/8
Q:1/4=92
M:2/4
K:B
V:1 treble nm="Singstimme\nVoice"
V:2 treble 
V:1
"^Andante con espressione" z4 | z4 | z4 | z4 |: z D C B, | F2 z F | F D B, B | B2 ^E E | F3 C | %9
w: ||||Ge- denkst du|mein, wenn|du mit rei- nen|Bli- cken hin-|aus- strebst|
w: ||||Ge- denkst du|mein, wenn|dir die Trä- nen|kom- men? mein|Le- ben|
 (c2 A) F | (=D2{ED} C3/2) B,/ | C4 | z =E E3/2 E/ | E2 z E | E E e3/2 c/ | B2 A2 | B2 F2- | %17
w: in * die|dunk- * le|Nacht?|Ich den- ke|Dein! und|kann mich was er-|qui- cken,|so ist's|
w: ist * ein|stil- * les|Ach!|Die Freu- de|draus ward|mir mit dir ge-|nom- men,|und nur|
 F3 B, | A, C D3/2 E/ | (E2 D2) | e2 A2- | A2 A2 | B B c3/2 c/ | (^^c2 d2) | B3 G | E3 g | f4- | %27
w: * nur,|weil ich Dein ge-|dacht, *|so ist's|* nur,|weil ich Dein ge-|dacht, *|weil ich|Dein ge-|dacht,|
w: * der|Schmerz ist e- wig|wach, *|und nur|* der|Schmerz ist e- wig|wach, *|er ist|e- wig|wach!|
 f2 F2 | d2 B2- | (B2 =G) E | C2 =E2- | E2 A, B, | B,4 | z4 | z4 | z4 | z4 :| z D C3/2 B,/ | %38
w: |weil _|_ _ ich|Dein *|* * ge-|dacht!|||||Ge- denkst du|
w: _ der|Schmerz _|_ _ ist|e- *|* * wig|wach!||||||
 F2 z F | F D B,3/2 B/ | B2 ^E E | F3 C | c2 A F | =D D C B, | F2 z =E | E4 | E2 E3/2 E/ | %47
w: mein? Du|hast es mir ver-|spro- chen, und|da- rum,|da- rum ja|lebt' ich bis- her|fort ge-|trost;|denn hät- test|
w: |||||||||
 E E e c | B2 A2 | B2 F2- | F3 B, | A, C D E | (E2 D) B | e3 A- | A3 A | B B c3/2 c/ | (^^c2 d) B | %57
w: du dein Wort ge-|bro- chen,|wär mehr|* ge-|bro- chen als ein|Wort, * wär|mehr wohl|* ge-|bro- chen als ein|Wort, * ja|
w: ||||||||||
 B3 G | E3 g | f4- | f2 F2 | d2 B2- | B B =G E | C2 =E2- | (E2 A,3/2) B,/ | B,4 | z4 | z4 | z4 | %69
w: mehr wohl|als ein|Wort,|* wär'|mehr _|_ ge- bro- chen|als _|_ _ ein|Wort!||||
w: ||||||||||||
 z4 |] %70
w: |
w: |
V:2
 x4 | x4 | x4 | x4 |: x4 | x4 | x4 | x4 | x4 | x4 | x4 | x4 | x4 | x4 | x4 | x4 | x4 | x4 | x4 | %19
 x4 | x4 | x4 | x4 | x4 | x4 | x3 G | F4- | F2 x2 | x4 | x4 | x4 | x4 | x4 | x4 | x4 | x4 | x4 :| %37
 x4 | x4 | x4 | x4 | x4 | x4 | x4 | x4 | x4 | x4 | x4 | x4 | x4 | x4 | x4 | x4 | x4 | x4 | x4 | %56
 x4 | x4 | x3 G | F4- | F2 x2 | x4 | x4 | x4 | x4 | x4 | x4 | x4 | x4 | x4 |] %70

